X: 2584
T: Ballyoran
R: polka
M: 2/4
K: Gmajor
|:B/A/|"*"GD/G/ BG/B/|dB/d/ gB|dc cA|ed B/c/B/A/|
GD/G/ BG/B/|dB/d/ gB|dc cA|AG G:|
|:B|dc cA|ed BG/B/|dc cA|ed B/c/B/A/|
GD/G/ BG/B/|dB/d/ gB|dc cA|AG G:|
G2G>E|E>D D A/B/|c3 B/A/|B3 A/B/|ce ed/c/|Bd dB/A/|
GA/B/ ce|d3 e/f/|g/b/a/f/ ge|d>e dB|~A2 G>E|D3 B/c/|
dd ed|BG2D|EG GA|G3|
|:B/c/|dg gf/e/|dB BA/B/|ce ed/c/|BG GB/c/|
dg gf/e/|dB BA/B/|ce ed|G2 G:|
|:B/A/|G/B/D/G/ Bd|cA A2A/G/|F/A/D/F/ Ac|BG G2B/A/|
G/B/D/G/ Bd|cA AG|Fe ed|G2 G:|
"* Variant"
|:B/A/|G/B/D/G/ B/D/G/B/|d/G/B/d/ gB|dc cA|ed B/c/B/A/ "etc"|

